images/28222.svg

<?xml version="1.0" encoding="UTF-8"?>
<svg xmlns="http://www.w3.org/2000/svg" xmlns:xlink="http://www.w3.org/1999/xlink" width="300pt" height="300pt" viewBox="0 0 300 300" version="1.1">
<defs>
<g>
<symbol overflow="visible" id="glyph0-0">
<path style="stroke:none;" d="M 0.796875 2.828125 L 0.796875 -11.28125 L 8.796875 -11.28125 L 8.796875 2.828125 Z M 1.703125 1.9375 L 7.90625 1.9375 L 7.90625 -10.390625 L 1.703125 -10.390625 Z M 1.703125 1.9375 "/>
</symbol>
<symbol overflow="visible" id="glyph0-1">
<path style="stroke:none;" d="M 6.3125 -10.59375 C 5.164062 -10.59375 4.253906 -10.164062 3.578125 -9.3125 C 2.898438 -8.457031 2.5625 -7.296875 2.5625 -5.828125 C 2.5625 -4.359375 2.898438 -3.195312 3.578125 -2.34375 C 4.253906 -1.488281 5.164062 -1.0625 6.3125 -1.0625 C 7.457031 -1.0625 8.363281 -1.488281 9.03125 -2.34375 C 9.695312 -3.195312 10.03125 -4.359375 10.03125 -5.828125 C 10.03125 -7.296875 9.695312 -8.457031 9.03125 -9.3125 C 8.363281 -10.164062 7.457031 -10.59375 6.3125 -10.59375 Z M 6.3125 -11.875 C 7.945312 -11.875 9.253906 -11.328125 10.234375 -10.234375 C 11.210938 -9.140625 11.703125 -7.671875 11.703125 -5.828125 C 11.703125 -3.984375 11.210938 -2.507812 10.234375 -1.40625 C 9.253906 -0.3125 7.945312 0.234375 6.3125 0.234375 C 4.664062 0.234375 3.351562 -0.3125 2.375 -1.40625 C 1.394531 -2.507812 0.90625 -3.984375 0.90625 -5.828125 C 0.90625 -7.671875 1.394531 -9.140625 2.375 -10.234375 C 3.351562 -11.328125 4.664062 -11.875 6.3125 -11.875 Z M 6.3125 -11.875 "/>
</symbol>
<symbol overflow="visible" id="glyph0-2">
<path style="stroke:none;" d="M 1.578125 -11.671875 L 3.703125 -11.671875 L 8.875 -1.90625 L 8.875 -11.671875 L 10.40625 -11.671875 L 10.40625 0 L 8.28125 0 L 3.109375 -9.765625 L 3.109375 0 L 1.578125 0 Z M 1.578125 -11.671875 "/>
</symbol>
<symbol overflow="visible" id="glyph0-3">
<path style="stroke:none;" d="M 1.578125 -11.671875 L 3.15625 -11.671875 L 3.15625 -6.890625 L 8.890625 -6.890625 L 8.890625 -11.671875 L 10.46875 -11.671875 L 10.46875 0 L 8.890625 0 L 8.890625 -5.5625 L 3.15625 -5.5625 L 3.15625 0 L 1.578125 0 Z M 1.578125 -11.671875 "/>
</symbol>
</g>
</defs>
<g id="surface23765">
<rect x="0" y="0" width="300" height="300" style="fill:rgb(100%,100%,100%);fill-opacity:1;stroke:none;"/>
<path style="fill:none;stroke-width:1.2;stroke-linecap:butt;stroke-linejoin:miter;stroke:rgb(100%,0%,0%);stroke-opacity:1;stroke-miterlimit:10;" d="M 34.507812 190.890625 L 49.585938 179.125 "/>
<path style="fill:none;stroke-width:1.2;stroke-linecap:butt;stroke-linejoin:miter;stroke:rgb(0%,0%,0%);stroke-opacity:1;stroke-miterlimit:10;" d="M 49.585938 179.125 L 64.660156 167.359375 "/>
<path style="fill:none;stroke-width:1.2;stroke-linecap:butt;stroke-linejoin:miter;stroke:rgb(100%,0%,0%);stroke-opacity:1;stroke-miterlimit:10;" d="M 28.96875 183.792969 L 44.046875 172.027344 "/>
<path style="fill:none;stroke-width:1.2;stroke-linecap:butt;stroke-linejoin:miter;stroke:rgb(0%,0%,0%);stroke-opacity:1;stroke-miterlimit:10;" d="M 44.046875 172.027344 L 59.125 160.261719 "/>
<path style=" stroke:none;fill-rule:nonzero;fill:rgb(100%,100%,100%);fill-opacity:1;" d="M 18.738281 177.84375 L 31.738281 177.84375 L 31.738281 196.84375 L 18.738281 196.84375 Z M 18.738281 177.84375 "/>
<g style="fill:rgb(100%,0%,0%);fill-opacity:1;">
  <use xlink:href="#glyph0-1" x="18.738281" y="192.695312"/>
</g>
<path style="fill:none;stroke-width:1.2;stroke-linecap:butt;stroke-linejoin:miter;stroke:rgb(0%,0%,0%);stroke-opacity:1;stroke-miterlimit:10;" d="M 61.894531 163.8125 L 80.273438 169.09375 "/>
<path style="fill:none;stroke-width:1.2;stroke-linecap:butt;stroke-linejoin:miter;stroke:rgb(0%,0%,100%);stroke-opacity:1;stroke-miterlimit:10;" d="M 80.273438 169.09375 L 98.65625 174.375 "/>
<path style="fill:none;stroke-width:1.2;stroke-linecap:butt;stroke-linejoin:miter;stroke:rgb(0%,0%,100%);stroke-opacity:1;stroke-miterlimit:10;" d="M 60.582031 125.582031 L 61.238281 144.695312 "/>
<path style="fill:none;stroke-width:1.2;stroke-linecap:butt;stroke-linejoin:miter;stroke:rgb(0%,0%,0%);stroke-opacity:1;stroke-miterlimit:10;" d="M 61.238281 144.695312 L 61.894531 163.8125 "/>
<path style="fill:none;stroke-width:1.2;stroke-linecap:butt;stroke-linejoin:miter;stroke:rgb(0%,0%,100%);stroke-opacity:1;stroke-miterlimit:10;" d="M 98.65625 174.375 L 109.359375 158.527344 "/>
<path style="fill:none;stroke-width:1.2;stroke-linecap:butt;stroke-linejoin:miter;stroke:rgb(0%,0%,0%);stroke-opacity:1;stroke-miterlimit:10;" d="M 109.359375 158.527344 L 120.0625 142.675781 "/>
<path style="fill:none;stroke-width:1.2;stroke-linecap:butt;stroke-linejoin:miter;stroke:rgb(0%,0%,100%);stroke-opacity:1;stroke-miterlimit:10;" d="M 98.65625 174.375 L 105.1875 192.351562 "/>
<path style="fill:none;stroke-width:1.2;stroke-linecap:butt;stroke-linejoin:miter;stroke:rgb(0%,0%,0%);stroke-opacity:1;stroke-miterlimit:10;" d="M 105.1875 192.351562 L 111.714844 210.328125 "/>
<path style=" stroke:none;fill-rule:nonzero;fill:rgb(100%,100%,100%);fill-opacity:1;" d="M 92.65625 164.875 L 104.65625 164.875 L 104.65625 183.875 L 92.65625 183.875 Z M 92.65625 164.875 "/>
<g style="fill:rgb(0%,0%,100%);fill-opacity:1;">
  <use xlink:href="#glyph0-2" x="92.65625" y="179.726562"/>
</g>
<path style="fill:none;stroke-width:1.2;stroke-linecap:butt;stroke-linejoin:miter;stroke:rgb(0%,0%,0%);stroke-opacity:1;stroke-miterlimit:10;" d="M 120.0625 142.675781 L 157.945312 137.375 "/>
<path style="fill:none;stroke-width:1.2;stroke-linecap:butt;stroke-linejoin:miter;stroke:rgb(0%,0%,0%);stroke-opacity:1;stroke-miterlimit:10;" d="M 122.605469 133.234375 L 152.910156 128.992188 "/>
<path style="fill:none;stroke-width:1.2;stroke-linecap:butt;stroke-linejoin:miter;stroke:rgb(0%,0%,0%);stroke-opacity:1;stroke-miterlimit:10;" d="M 96.53125 112.523438 L 120.0625 142.675781 "/>
<path style="fill:none;stroke-width:1.2;stroke-linecap:butt;stroke-linejoin:miter;stroke:rgb(0%,0%,0%);stroke-opacity:1;stroke-miterlimit:10;" d="M 157.945312 137.375 L 172.292969 101.917969 "/>
<path style="fill:none;stroke-width:1.2;stroke-linecap:butt;stroke-linejoin:miter;stroke:rgb(0%,0%,0%);stroke-opacity:1;stroke-miterlimit:10;" d="M 172.292969 101.917969 L 148.761719 71.765625 "/>
<path style="fill:none;stroke-width:1.2;stroke-linecap:butt;stroke-linejoin:miter;stroke:rgb(0%,0%,0%);stroke-opacity:1;stroke-miterlimit:10;" d="M 162.84375 104.441406 L 144.019531 80.316406 "/>
<path style="fill:none;stroke-width:1.2;stroke-linecap:butt;stroke-linejoin:miter;stroke:rgb(0%,0%,0%);stroke-opacity:1;stroke-miterlimit:10;" d="M 172.292969 101.917969 L 210.175781 96.617188 "/>
<path style="fill:none;stroke-width:1.2;stroke-linecap:butt;stroke-linejoin:miter;stroke:rgb(0%,0%,0%);stroke-opacity:1;stroke-miterlimit:10;" d="M 148.761719 71.765625 L 110.882812 77.066406 "/>
<path style="fill:none;stroke-width:1.2;stroke-linecap:butt;stroke-linejoin:miter;stroke:rgb(0%,0%,0%);stroke-opacity:1;stroke-miterlimit:10;" d="M 110.882812 77.066406 L 96.53125 112.523438 "/>
<path style="fill:none;stroke-width:1.2;stroke-linecap:butt;stroke-linejoin:miter;stroke:rgb(0%,0%,0%);stroke-opacity:1;stroke-miterlimit:10;" d="M 117.789062 83.988281 L 106.308594 112.351562 "/>
<path style="fill:none;stroke-width:1.2;stroke-linecap:butt;stroke-linejoin:miter;stroke:rgb(0%,0%,0%);stroke-opacity:1;stroke-miterlimit:10;" d="M 96.53125 112.523438 L 78.554688 119.050781 "/>
<path style="fill:none;stroke-width:1.2;stroke-linecap:butt;stroke-linejoin:miter;stroke:rgb(0%,0%,100%);stroke-opacity:1;stroke-miterlimit:10;" d="M 78.554688 119.050781 L 60.582031 125.582031 "/>
<path style="fill:none;stroke-width:1.2;stroke-linecap:butt;stroke-linejoin:miter;stroke:rgb(0%,0%,100%);stroke-opacity:1;stroke-miterlimit:10;" d="M 60.582031 125.582031 L 44.730469 114.878906 "/>
<path style="fill:none;stroke-width:1.2;stroke-linecap:butt;stroke-linejoin:miter;stroke:rgb(0%,0%,0%);stroke-opacity:1;stroke-miterlimit:10;" d="M 44.730469 114.878906 L 28.882812 104.175781 "/>
<path style=" stroke:none;fill-rule:nonzero;fill:rgb(100%,100%,100%);fill-opacity:1;" d="M 54.582031 116.082031 L 66.582031 116.082031 L 66.582031 135.082031 L 54.582031 135.082031 Z M 54.582031 116.082031 "/>
<g style="fill:rgb(0%,0%,100%);fill-opacity:1;">
  <use xlink:href="#glyph0-2" x="54.582031" y="130.933594"/>
</g>
<path style="fill:none;stroke-width:1.2;stroke-linecap:butt;stroke-linejoin:miter;stroke:rgb(0%,0%,0%);stroke-opacity:1;stroke-miterlimit:10;" d="M 210.175781 96.617188 L 219.164062 79.738281 "/>
<path style="fill:none;stroke-width:1.2;stroke-linecap:butt;stroke-linejoin:miter;stroke:rgb(0%,0%,100%);stroke-opacity:1;stroke-miterlimit:10;" d="M 219.164062 79.738281 L 228.152344 62.855469 "/>
<path style="fill:none;stroke-width:1.2;stroke-linecap:butt;stroke-linejoin:miter;stroke:rgb(0%,0%,0%);stroke-opacity:1;stroke-miterlimit:10;" d="M 219.914062 97.472656 L 227.105469 83.96875 "/>
<path style="fill:none;stroke-width:1.2;stroke-linecap:butt;stroke-linejoin:miter;stroke:rgb(0%,0%,100%);stroke-opacity:1;stroke-miterlimit:10;" d="M 227.105469 83.96875 L 234.296875 70.460938 "/>
<path style="fill:none;stroke-width:1.2;stroke-linecap:butt;stroke-linejoin:miter;stroke:rgb(0%,0%,0%);stroke-opacity:1;stroke-miterlimit:10;" d="M 236.730469 124.148438 L 210.175781 96.617188 "/>
<path style="fill:none;stroke-width:1.2;stroke-linecap:butt;stroke-linejoin:miter;stroke:rgb(0%,0%,100%);stroke-opacity:1;stroke-miterlimit:10;" d="M 228.152344 62.855469 L 265.816406 69.519531 "/>
<path style=" stroke:none;fill-rule:nonzero;fill:rgb(100%,100%,100%);fill-opacity:1;" d="M 222.152344 53.355469 L 234.152344 53.355469 L 234.152344 72.355469 L 222.152344 72.355469 Z M 222.152344 53.355469 "/>
<g style="fill:rgb(0%,0%,100%);fill-opacity:1;">
  <use xlink:href="#glyph0-2" x="222.152344" y="68.207031"/>
</g>
<path style="fill:none;stroke-width:1.2;stroke-linecap:butt;stroke-linejoin:miter;stroke:rgb(0%,0%,100%);stroke-opacity:1;stroke-miterlimit:10;" d="M 265.816406 69.519531 L 268.46875 88.460938 "/>
<path style="fill:none;stroke-width:1.2;stroke-linecap:butt;stroke-linejoin:miter;stroke:rgb(0%,0%,0%);stroke-opacity:1;stroke-miterlimit:10;" d="M 268.46875 88.460938 L 271.117188 107.402344 "/>
<path style=" stroke:none;fill-rule:nonzero;fill:rgb(100%,100%,100%);fill-opacity:1;" d="M 253.816406 60.019531 L 277.816406 60.019531 L 277.816406 79.019531 L 253.816406 79.019531 Z M 253.816406 60.019531 "/>
<g style="fill:rgb(0%,0%,100%);fill-opacity:1;">
  <use xlink:href="#glyph0-2" x="253.816406" y="74.871094"/>
  <use xlink:href="#glyph0-3" x="265.785156" y="74.871094"/>
</g>
<path style="fill:none;stroke-width:1.2;stroke-linecap:butt;stroke-linejoin:miter;stroke:rgb(0%,0%,0%);stroke-opacity:1;stroke-miterlimit:10;" d="M 271.117188 107.402344 L 236.730469 124.148438 "/>
<path style="fill:none;stroke-width:1.2;stroke-linecap:butt;stroke-linejoin:miter;stroke:rgb(0%,0%,0%);stroke-opacity:1;stroke-miterlimit:10;" d="M 263.738281 100.984375 L 236.226562 114.382812 "/>
<path style="fill:none;stroke-width:1.2;stroke-linecap:butt;stroke-linejoin:miter;stroke:rgb(0%,0%,0%);stroke-opacity:1;stroke-miterlimit:10;" d="M 236.730469 124.148438 L 230.066406 161.8125 "/>
<path style="fill:none;stroke-width:1.2;stroke-linecap:butt;stroke-linejoin:miter;stroke:rgb(0%,0%,0%);stroke-opacity:1;stroke-miterlimit:10;" d="M 230.066406 161.8125 L 194.113281 174.875 "/>
<path style="fill:none;stroke-width:1.2;stroke-linecap:butt;stroke-linejoin:miter;stroke:rgb(0%,0%,0%);stroke-opacity:1;stroke-miterlimit:10;" d="M 229.542969 171.578125 L 200.78125 182.027344 "/>
<path style="fill:none;stroke-width:1.2;stroke-linecap:butt;stroke-linejoin:miter;stroke:rgb(0%,0%,0%);stroke-opacity:1;stroke-miterlimit:10;" d="M 259.351562 186.417969 L 230.066406 161.8125 "/>
<path style="fill:none;stroke-width:1.2;stroke-linecap:butt;stroke-linejoin:miter;stroke:rgb(0%,0%,0%);stroke-opacity:1;stroke-miterlimit:10;" d="M 194.113281 174.875 L 187.449219 212.539062 "/>
<path style="fill:none;stroke-width:1.2;stroke-linecap:butt;stroke-linejoin:miter;stroke:rgb(0%,0%,0%);stroke-opacity:1;stroke-miterlimit:10;" d="M 187.449219 212.539062 L 216.738281 237.144531 "/>
<path style="fill:none;stroke-width:1.2;stroke-linecap:butt;stroke-linejoin:miter;stroke:rgb(0%,0%,0%);stroke-opacity:1;stroke-miterlimit:10;" d="M 196.167969 208.109375 L 219.597656 227.792969 "/>
<path style="fill:none;stroke-width:1.2;stroke-linecap:butt;stroke-linejoin:miter;stroke:rgb(0%,0%,0%);stroke-opacity:1;stroke-miterlimit:10;" d="M 216.738281 237.144531 L 252.6875 224.082031 "/>
<path style="fill:none;stroke-width:1.2;stroke-linecap:butt;stroke-linejoin:miter;stroke:rgb(0%,0%,0%);stroke-opacity:1;stroke-miterlimit:10;" d="M 252.6875 224.082031 L 259.351562 186.417969 "/>
<path style="fill:none;stroke-width:1.2;stroke-linecap:butt;stroke-linejoin:miter;stroke:rgb(0%,0%,0%);stroke-opacity:1;stroke-miterlimit:10;" d="M 244.492188 218.746094 L 249.824219 188.617188 "/>
</g>
</svg>

<svg xmlns="http://www.w3.org/2000/svg" xmlns:xlink="http://www.w3.org/1999/xlink" width="300pt" height="300pt" viewBox="0 0 300 300"><defs><symbol overflow="visible"><path d="M.797 2.828v-14.11h8V2.83zm.906-.89h6.203v-12.33H1.703zm0 0"/></symbol><symbol overflow="visible" id="a"><path d="M6.313-10.594c-1.15 0-2.06.43-2.735 1.28-.68.857-1.015 2.017-1.015 3.486 0 1.47.335 2.633 1.015 3.484.676.856 1.586 1.28 2.735 1.28 1.144.002 2.05-.424 2.718-1.28.665-.85 1-2.015 1-3.484 0-1.47-.335-2.63-1-3.484-.667-.852-1.573-1.282-2.717-1.282zm0-1.28c1.632 0 2.94.546 3.92 1.64.978 1.093 1.47 2.562 1.47 4.406 0 1.844-.492 3.32-1.47 4.422-.98 1.093-2.288 1.64-3.92 1.64-1.65 0-2.96-.546-3.938-1.64-.98-1.102-1.47-2.578-1.47-4.422 0-1.844.49-3.313 1.47-4.406.977-1.094 2.29-1.64 3.938-1.64zm0 0"/></symbol><symbol overflow="visible" id="b"><path d="M1.578-11.672h2.125l5.172 9.766v-9.766h1.53V0H8.282L3.11-9.766V0H1.577zm0 0"/></symbol><symbol overflow="visible" id="c"><path d="M1.578-11.672h1.578v4.78H8.89v-4.78h1.58V0H8.89v-5.563H3.157V0H1.578zm0 0"/></symbol></defs><g><path fill="#fff" d="M0 0h300v300H0z"/><path d="M34.508 190.89l15.078-11.765" stroke-width="1.2" stroke="#f00" stroke-miterlimit="10" fill="none"/><path d="M49.586 179.125L64.66 167.36" stroke-width="1.2" stroke="#000" stroke-miterlimit="10" fill="none"/><path d="M28.97 183.793l15.077-11.766" stroke-width="1.2" stroke="#f00" stroke-miterlimit="10" fill="none"/><path d="M44.047 172.027l15.078-11.765" stroke-width="1.2" stroke="#000" stroke-miterlimit="10" fill="none"/><path d="M18.738 177.844h13v19h-13zm0 0" fill="#fff"/><use xlink:href="#a" x="18.738" y="192.695" fill="#f00"/><path d="M61.895 163.813l18.378 5.28" stroke-width="1.2" stroke="#000" stroke-miterlimit="10" fill="none"/><path d="M80.273 169.094l18.383 5.28M60.582 125.582l.656 19.113" stroke-width="1.2" stroke="#00f" stroke-miterlimit="10" fill="none"/><path d="M61.238 144.695l.657 19.118" stroke-width="1.2" stroke="#000" stroke-miterlimit="10" fill="none"/><path d="M98.656 174.375l10.703-15.848" stroke-width="1.2" stroke="#00f" stroke-miterlimit="10" fill="none"/><path d="M109.36 158.527l10.703-15.85" stroke-width="1.2" stroke="#000" stroke-miterlimit="10" fill="none"/><path d="M98.656 174.375l6.53 17.977" stroke-width="1.2" stroke="#00f" stroke-miterlimit="10" fill="none"/><path d="M105.188 192.352l6.527 17.976" stroke-width="1.2" stroke="#000" stroke-miterlimit="10" fill="none"/><path d="M92.656 164.875h12v19h-12zm0 0" fill="#fff"/><use xlink:href="#b" x="92.656" y="179.727" fill="#00f"/><path d="M120.063 142.676l37.882-5.3M122.605 133.234l30.305-4.242M96.53 112.523l23.532 30.153M157.945 137.375l14.348-35.457M172.293 101.918l-23.53-30.152M162.844 104.44L144.02 80.317M172.293 101.918l37.883-5.3M148.762 71.766l-37.88 5.3M110.883 77.066L96.53 112.523M117.79 83.988l-11.48 28.364M96.53 112.523l-17.975 6.528" stroke-width="1.2" stroke="#000" stroke-miterlimit="10" fill="none"/><path d="M78.555 119.05l-17.973 6.532M60.582 125.582L44.73 114.88" stroke-width="1.2" stroke="#00f" stroke-miterlimit="10" fill="none"/><path d="M44.73 114.88l-15.847-10.704" stroke-width="1.2" stroke="#000" stroke-miterlimit="10" fill="none"/><path d="M54.582 116.082h12v19h-12zm0 0" fill="#fff"/><use xlink:href="#b" x="54.582" y="130.934" fill="#00f"/><path d="M210.176 96.617l8.988-16.88" stroke-width="1.2" stroke="#000" stroke-miterlimit="10" fill="none"/><path d="M219.164 79.738l8.988-16.883" stroke-width="1.2" stroke="#00f" stroke-miterlimit="10" fill="none"/><path d="M219.914 97.473l7.19-13.504" stroke-width="1.2" stroke="#000" stroke-miterlimit="10" fill="none"/><path d="M227.105 83.97l7.192-13.51" stroke-width="1.2" stroke="#00f" stroke-miterlimit="10" fill="none"/><path d="M236.73 124.148l-26.554-27.53" stroke-width="1.2" stroke="#000" stroke-miterlimit="10" fill="none"/><path d="M228.152 62.855l37.664 6.665" stroke-width="1.2" stroke="#00f" stroke-miterlimit="10" fill="none"/><path d="M222.152 53.355h12v19h-12zm0 0" fill="#fff"/><use xlink:href="#b" x="222.152" y="68.207" fill="#00f"/><path d="M265.816 69.52l2.653 18.94" stroke-width="1.2" stroke="#00f" stroke-miterlimit="10" fill="none"/><path d="M268.47 88.46l2.647 18.942" stroke-width="1.2" stroke="#000" stroke-miterlimit="10" fill="none"/><path d="M253.816 60.02h24v19h-24zm0 0" fill="#fff"/><g fill="#00f"><use xlink:href="#b" x="253.816" y="74.871"/><use xlink:href="#c" x="265.785" y="74.871"/></g><path d="M271.117 107.402l-34.387 16.746M263.738 100.984l-27.51 13.4M236.73 124.148l-6.664 37.665M230.066 161.813l-35.953 13.062M229.543 171.578l-28.762 10.45M259.352 186.418l-29.286-24.606M194.113 174.875l-6.664 37.664M187.45 212.54l29.288 24.605M196.168 208.11l23.43 19.683M216.738 237.145l35.95-13.063M252.688 224.082l6.664-37.664M244.492 218.746l5.332-30.13" stroke-width="1.2" stroke="#000" stroke-miterlimit="10" fill="none"/></g></svg>
